X:1
T:Some Sweet Day
T:George Coles Stebbins
T:Some Sweet Day
T:Public Domain
T:Public Domain
T:Public Domain
C:George Coles Stebbins
Z:Public Domain
%%score ( 1 2 ) ( 3 4 )
L:1/8
M:3/4
K:Ab
V:1 treble 
V:2 treble 
V:3 bass 
V:4 bass 
V:1
 [Ec][DB] | [Fd]3 [Ec] [CE][Ec] | [DB]4 [DB][C=A] | [Ec]3 [DB] [DE][DB] | [CA]4 [Ec][DB] | %5
w: 1.~Some sweet|morn the day will|break, Nev- er-|more to sink in|night. Some sweet|
w: 2.~Some sweet|day the end shall|come To our|part- ing and our|pain, Some sweet|
w: 3.~Some sweet|hour our mor- tal|frame Shall His|glo- rious im- age|wear. Some sweet|
w: 4.~Some sweet|day our tongue shall|tell All the|sto- ry of His|love. Some sweet|
w: 5.~Some sweet|morn we’ll see His|face, And we|shall be sa- tis-|fied. Some sweet|
 [Fd]3 [Ec] [_Ge][Fd] | [DF]4 [FA][_Fd] | [Ec]3 [CE] [Ec][DB] | [CA]4 || %9
w: morn we shall a-|wake, Mid the|ev- er- last- ing|light.|
w: day we’ll all go|home, Nev- er-|more to part a-|gain.|
w: hour our worth- less|name All His|ma- jes- ty shall|share.|
w: day our song shall|swell Loud and|sweet as songs a-|bove.|
w: day in His em-|brace We shall|ev- er- more a-|bide.|
[M:4/4]"^Refrain" [CA][EG] | [DF][Fd][Fd][Fd] [Fd][DF] [EG]>[DF] | [CE]2 [Ec]4 [Ec][Ec] | %12
w: |||
w: |||
w: We are|wait- ing for “the turn- ing of the|morn- ing,” We are|
w: |||
w: |||
 [Ec][DB][DB][DB] [C=A][DB] [=Dc]>[FB] | (GABA G2) [Ge][Fd] | [Ec]3 [_Ge] [Fd][Ec][DB][CA] | %15
w: |||
w: |||
w: watch- ing for the break- ing of the|dawn; * * * * Morn of|oh, haste thy glad ap- pear-|
w: |||
w: |||
 [DF]2 [Fd]4 AB | [Ec]>[Fd] [Ae]>[Af] [Ae]=AB[EG] | [EA]6 |] %18
w: |||
w: |||
w: ing! Day of days,|speed on, speed on, speed on! * *||
w: |||
w: |||
V:2
 x2 | x6 | x6 | x6 | x6 | x6 | x6 | x6 | x4 ||[M:4/4] x2 | x8 | x8 | x8 | e6 x2 | x8 | x8 | x8 | %17
w: |||||||||||||||||
w: |||||||||||||||||
w: |||||||||||||morns,||||
 x6 |] %18
w: |
w: |
w: |
V:3
 z2 | (A,,A,) [E,A,]2 [E,A,]2 | (E,,E,) [E,G,]2 [E,G,]2 | (E,,E,) [E,G,]2 [E,G,]2 | %4
w: |~ * ~ ~|~ * ~ ~|~ * ~ ~|
 (A,,E,) [E,A,]2 z2 | A,,A, [E,A,]2 [E,A,]2 | (D,,D,) [D,A,]2 [D,A,]2 | (E,,E,) [E,A,]2 [E,G,]2 | %8
w: ~ * ~|~ ~ ~ ~|~ * ~ ~|~ * ~ ~|
 (A,F, E,2) ||[M:4/4] [A,,E,][C,A,] | [D,A,][D,A,][D,A,][D,A,] [D,A,][D,A,] [D,A,]>[D,A,] | %11
w: ~ * *|~ ~|~ ~ ~ ~ ~ ~ ~ morn-|
 [A,,A,][A,,A,] [A,,A,]>[A,,A,] [A,,A,][A,,A,][A,,A,][A,,A,] | %12
w: ing, of the morn- ing. ~ ~ ~|
 [E,A,][E,G,][E,G,][E,G,] [E,G,][E,G,] [B,,F,]>[=D,B,] | (B,C)DE B,2 z2 | %14
w: ~ ~ ~ ~ ~ ~ ~ ~|of * the dawn Morn|
 A,A,A,A, A,A,[E,G,][F,A,] | [D,A,][D,A,][D,A,][D,A,] [D,A,][D,A,] z2 | %16
w: morns ~ ~ ~ ~ ap- pear- ing,|days ~ ~ speed on, *|
 A,>[F,D] [E,C]>[=D,=B,] CC=D[E,_B,] | [A,,C]6 |] %18
w: ||
V:4
 x2 | x6 | x6 | x6 | x6 | x6 | x6 | x6 | A,,4 ||[M:4/4] x2 | x8 | x8 | x8 | E,6 x2 | %14
w: ||||||||~|||||of|
 A,A,A,A, A,A, x2 | x8 | A,3/2 x E,3 x5/2 | x6 |] %18
w: glad ap- pear- ing; Day of||||

